svg/24/folder-download--filled.svg

<svg width="24" height="24" viewBox="0 0 24 24" fill="currentColor" xmlns="http://www.w3.org/2000/svg"><path fill-rule="evenodd" clip-rule="evenodd" d="M4 3C2.89543 3 2 3.89543 2 5V18C2 19.1046 2.89543 20 4 20H20C21.1046 20 22 19.1046 22 18V8C22 6.89543 21.1046 6 20 6H12.4142C12.149 6 11.8946 5.89464 11.7071 5.70711L9.58579 3.58579C9.21071 3.21071 8.70201 3 8.17157 3H4ZM8.96967 13.2197C9.26256 12.9268 9.73744 12.9268 10.0303 13.2197L11.25 14.4393V9.75C11.25 9.33579 11.5858 9 12 9C12.4142 9 12.75 9.33579 12.75 9.75V14.4393L13.9697 13.2197C14.2626 12.9268 14.7374 12.9268 15.0303 13.2197C15.3232 13.5126 15.3232 13.9874 15.0303 14.2803L12.5303 16.7803C12.2374 17.0732 11.7626 17.0732 11.4697 16.7803L8.96967 14.2803C8.67678 13.9874 8.67678 13.5126 8.96967 13.2197Z"/></svg>

<svg xmlns="http://www.w3.org/2000/svg" width="24" height="24" fill="currentColor" viewBox="0 0 24 24">
  <path fill-rule="evenodd" d="M4 3a2 2 0 0 0-2 2v13a2 2 0 0 0 2 2h16a2 2 0 0 0 2-2V8a2 2 0 0 0-2-2h-7.586a1 1 0 0 1-.707-.293L9.586 3.586A2 2 0 0 0 8.172 3H4Zm4.97 10.22a.75.75 0 0 1 1.06 0l1.22 1.22V9.75a.75.75 0 0 1 1.5 0v4.69l1.22-1.22a.75.75 0 1 1 1.06 1.06l-2.5 2.5a.75.75 0 0 1-1.06 0l-2.5-2.5a.75.75 0 0 1 0-1.06Z" clip-rule="evenodd"/>
</svg>
